X:1
T: The Marquis of Huntly's Reel (A Strathspey)
C:William Marshall
R:Strathspey
Q: 128
K:F
M:4/4
L:1/16
|:DG3 G3F DG3 G4|F3G A3B cA3 FA3|DG3 G3F DG3 G4|fd3 dcBA G4 G4|
DG3 G3F DG3 G4|F3G A3B cA3 FA3|DG3 G3F DG3 G4|fd3 dcBA G4 G4|
g3a bg3 dg3 bg3|agfe c3d fc3 af3|g3a bg3 dg3 bg3|bagf d3f ggg2 g4|
g3a b3g a3f g3d|fc3 d3f AF3 cA3|DG3 G3F DG3 G4|fc3 dcBA G4 G4:|
